X:7642
T:Irish Waterman,bass part. JNu.33
M:6/8
Q:120
S:James Nuttall MS,c1830?,Rossendale,East Lancs.
R:Jig
O:England
A:East Lancashire
Z:Chris Partington
K:G
"thirdo,read as bass clef"z|e2ee2e|e2ee3|B2BB2B|B2Be3|
E2EE2E|E2EE3|A3B3|EGBE2::!
z|e2ee2e|e2ee2e|B2BB2B|B2B eee|a3g3|f3e3|AEA Bcd|eEEE2:|]


